!!!COM:	Bach, Johann Sebastian
!!!CDT:	1685/02/21/-1750/07/28/
!!!OTL@@DE:	Weltlich Ehr und zeitlich Gut
!!!SCT:	BWV 426
!!!PC#:	211
!!!AGN:	chorale
**kern	**kern	**kern	**kern
*ICvox	*ICvox	*ICvox	*ICvox
*Ibass	*Itenor	*Ialto	*Isoprn
*I"Bass	*I"Tenor	*I"Alto	*I"Soprano
*clefF4	*clefGv2	*clefG2	*clefG2
*k[]	*k[]	*k[]	*k[]
*C:	*C:	*C:	*C:
*M4/4	*M4/4	*M4/4	*M4/4
*met(c)	*met(c)	*met(c)	*met(c)
*MM100	*MM100	*MM100	*MM100
=1-	=1-	=1-	=1-
8CL	4G	8eL	4cc
8DJ	.	8fJ	.
4E	8GL	[4g	4b
.	8cJ	.	.
8FL	4c	8gL]	4a
8GJ	.	16fL	.
.	.	16eJJ	.
8FL	4c	4f	4a
8EJ	.	.	.
=2	=2	=2	=2
4D	8dL	8fL	4a
.	8fJ	8aJ	.
8GL	8eL	4g	4b
8FJ	8dJ	.	.
4E	4c	[4g	8ccL
.	.	.	8bJ
4F	4c	8gL]	4a
.	.	8fJ	.
=3	=3	=3	=3
2C;	2c;	4f	2g;
.	.	4e;	.
4r	4ry	4ry	4r
4G	4d	4g	4b
=4	=4	=4	=4
8CL	4e	4g	4cc
8E	.	.	.
8G	4d	4g	4b
8FJ	.	.	.
8EL	4c	4g	4cc
8C	.	.	.
8F	4c	[4f	4a
8EJ	.	.	.
=5	=5	=5	=5
8DL	4d	4f]	4b
8BB	.	.	.
8E	4B	4e	4g
8DJ	.	.	.
8CL	8AL	2e	2a
8BB	8B	.	.
8AA	8c	.	.
8CJ	8AJ	.	.
=6	=6	=6	=6
2E;	2G#;	2e;	2b;
4r	4ry	4ry	4r
4E	4G	4e	4b
=7	=7	=7	=7
4D#	8BL	8f#L	4b
.	[8f#J	[8aJ	.
4E	8f#L]	8aL]	4b
.	[8eJ	8gJ	.
4F#X	8eL]	4f#	4a
.	8dJ	.	.
4G#	8cL	4e	4b
.	8BJ	.	.
=8	=8	=8	=8
2A;	2A;	2e;	2cc;
4B	[4d	8dL	4g
.	.	[8fJ	.
4c	8dL]	8fL]	4g
.	16cL	[8eJ	.
.	16BJJ	.	.
=9	=9	=9	=9
4F#	4c	8eL]	4a
.	.	8dJ	.
8GL	8BL	4d	4b
8F#J	8AJ	.	.
8EL	8GL	8c	4cc
8CJ	8eJ	4g	.
4D	4d	.	4a
.	.	8f#	.
=10	=10	=10	=10
2GG;	2d;	2g;	2b;
4GG	4d	4.g	4b
4AA	4c	.	4cc
.	.	8f#	.
=11	=11	=11	=11
4BB	4B	8gL	4dd
.	.	8aJ	.
4GG#	4e	4b	4dd
8AAL	4e	8aL	4cc
8BB	.	8gJ	.
8C	4d	4f#	4a
8DJ	.	.	.
=12	=12	=12	=12
2GGnX;	2d;	2g;	2b;
8dL	8f#L	4a	4dd
8c	8e	.	.
8B	8d	8gL	4dd
8AJ	8cJ	8aJ	.
=13	=13	=13	=13
8GL	4B	8bL	4dd
8FnX	.	8a	.
8E	4B	8g	4dd
8DJ	.	8fnXJ	.
4C	8cL	4e	4ee
.	8BJ	.	.
4D	4A	4f#	8ddL
.	.	.	8ccJ
=14	=14	=14	=14
2E;	2e;	2g;	2b;
4GG	4d	8gL	4b
.	.	8fnXJ	.
8CL	4c	[4e	4g
8BBJ	.	.	.
=15	=15	=15	=15
4AA	4c	8eL]	4a
.	.	8f#J	.
4GG	4d	4g	8bL
.	.	.	8ccJ
4FF#	4d	[4a	8ddL
.	.	.	8ccJ
4GG	4d	8aL]	4b
.	.	[8gJ	.
=16	=16	=16	=16
4D	4d	8gL]	4a
.	.	16fnXL	.
.	.	16eJJ	.
4GG	8dL	8fL	4b
.	8GJ	16eL	.
.	.	16dJJ	.
2C;	2G;	2e;	2cc;
==	==	==	==
*-	*-	*-	*-
!!!hum2abc: -Q ''
!!!title: @{PC#}. @{OTL@@DE}
!!!YOR1: 371 vierstimmige Choralges&auml;nge von Johann Sebastian Bach, 
!!!YOR2: 4th ed. by Alfred D&ouml;rffel (Leipzig: Breitkopf und H&auml;rtel, 
!!!YOR2: c.1875). 178 pp. Plate "V.A.10".  reprint: J.S. Bach, 371 Four-Part 
!!!YOR4: Chorales (New York: Associated Music Publishers, Inc., c.1940).
!!!SMS: B&H, 4th ed, Alfred D&ouml;rffel, c.1875, plate V.A.10
!!!EED:  Craig Stuart Sapp
!!!EEV:  2009/05/22
